X:184173898584311
T:10-7-3-2-11-5-3-9-11-9-9-7-9-5-7-6
%%setfont-1 Courier-Bold 8
T:$1K.516f::98:157:128:41:135:2:134:94:102:88:48:29:51:160:23:93::$0
T:$1Perm. No.: 184173898584311$0
M:3/8
L:1/8
Q:1/8=111
%%staves [1 2]
V:1 clef=treble
V:2 clef=bass
K:C
%1
[V:1]|: cGe |\
[V:2]|: [E,/C,/]G,/[E,/C,/]G,/[E,/C,/]G,/ |\
%2
[V:1] e/d/e/g/c'/g/ |\
[V:2] C,2z |\
%3
[V:1] Bdg |\
[V:2] G,,2z |\
%4
[V:1] c/B/c/e/G |\
[V:2] [E,2C,2]z |\
%5
[V:1] ^ff/d/a |\
[V:2] D,D,D, & C,C,C,   |\
%6
[V:1] A^F/G/B/g/ |\
[V:2] [G,2B,,2]z |\
%7
[V:1] A/e/[d/B/][c/A/][B/G/][A/^F/] \
[V:2] C,D,D,, \
%8a
[V:1]|1 [g2d2B2G2]z :|2
[V:2]|1 G,,G,/=F,/E,/D,/ :|2
%8b
[V:1] [g2d2B2G2]z |:\
[V:2] G,,B,/G,/^F,/E,/ |:\
%9
[V:1] ^f/d/A f |\
[V:2] [A,2C,2][A,C,] |\
%10
[V:1] g/d/g/b/g/d/ |\
[V:2] [D,2B,,2][D,B,,] |\
%11
[V:1] ec/e/g/c'/ |\
[V:2] [G,2C,2][E,C,] |\
%12
[V:1] B/d/g/d/B |\
[V:2] G,2G,, |\
%13
[V:1] c/G/e/c/g/e/ |\
[V:2] [E,2C,2]z |\
%14
[V:1] c/B/c/e/G/c/ |\
[V:2] [E,2C,2][E,C,] |\
%15
[V:1] f/e/d/e/f/g/ |\
[V:2] A,/G,/F,/G,/A,/B,/ |\
%16
[V:1] c2z :|]
[V:2] C,G,,C,, :|]
